assets/arrow-right.svg

<svg width="67" height="67" viewBox="0 0 67 67" fill="none" xmlns="http://www.w3.org/2000/svg">
<g filter="url(#filter0_d_302_20103)">
<path d="M8.07291 30.5984C8.07291 16.6334 19.3938 5.3125 33.3588 5.3125C47.3238 5.3125 58.6447 16.6334 58.6447 30.5984C58.6447 44.5634 47.3238 55.8843 33.3588 55.8843C19.3938 55.8843 8.07291 44.5634 8.07291 30.5984Z" fill="white"/>
<path d="M8.86309 30.5984C8.86309 17.0698 19.8302 6.10268 33.3588 6.10268C46.8874 6.10268 57.8546 17.0698 57.8546 30.5984C57.8546 44.127 46.8874 55.0942 33.3588 55.0942C19.8302 55.0942 8.86309 44.127 8.86309 30.5984Z" stroke="white" stroke-width="1.58037"/>
</g>
<path d="M27.3975 43.3719C26.9604 42.9566 26.9207 42.3066 27.2783 41.8485L27.3975 41.7173L38.017 31.6248L27.3975 21.5323C26.9604 21.1169 26.9207 20.4669 27.2783 20.0089L27.3975 19.8777C27.8346 19.4623 28.5185 19.4245 29.0005 19.7644L29.1386 19.8777L40.6292 30.7975C41.0663 31.2129 41.106 31.8628 40.7484 32.3209L40.6292 32.4521L29.1386 43.3719C28.6578 43.8288 27.8783 43.8288 27.3975 43.3719Z" fill="#F14F02"/>
<defs>
<filter id="filter0_d_302_20103" x="0.171058" y="0.57139" width="66.3755" height="66.3755" filterUnits="userSpaceOnUse" color-interpolation-filters="sRGB">
<feFlood flood-opacity="0" result="BackgroundImageFix"/>
<feColorMatrix in="SourceAlpha" type="matrix" values="0 0 0 0 0 0 0 0 0 0 0 0 0 0 0 0 0 0 127 0" result="hardAlpha"/>
<feOffset dy="3.16074"/>
<feGaussianBlur stdDeviation="3.95092"/>
<feColorMatrix type="matrix" values="0 0 0 0 0 0 0 0 0 0 0 0 0 0 0 0 0 0 0.25 0"/>
<feBlend mode="normal" in2="BackgroundImageFix" result="effect1_dropShadow_302_20103"/>
<feBlend mode="normal" in="SourceGraphic" in2="effect1_dropShadow_302_20103" result="shape"/>
</filter>
</defs>
</svg>

<svg width="67" height="67" fill="none" xmlns="http://www.w3.org/2000/svg"><g filter="url(#a)"><path d="M8.073 30.598c0-13.965 11.32-25.285 25.286-25.285 13.965 0 25.286 11.32 25.286 25.285S47.324 55.884 33.359 55.884c-13.965 0-25.286-11.32-25.286-25.286Z" fill="#fff"/><path d="M8.863 30.598C8.863 17.07 19.83 6.103 33.36 6.103c13.528 0 24.496 10.967 24.496 24.495 0 13.529-10.968 24.496-24.496 24.496-13.529 0-24.496-10.967-24.496-24.496Z" stroke="#fff" stroke-width="1.58"/></g><path d="M27.398 43.372a1.127 1.127 0 0 1-.12-1.523l.12-.132 10.619-10.092-10.62-10.093a1.127 1.127 0 0 1-.119-1.523l.12-.131A1.28 1.28 0 0 1 29 19.764l.139.114 11.49 10.92c.437.415.477 1.065.12 1.523l-.12.131-11.49 10.92c-.481.457-1.26.457-1.741 0Z" fill="#F14F02"/><defs><filter id="a" x=".171" y=".571" width="66.376" height="66.376" filterUnits="userSpaceOnUse" color-interpolation-filters="sRGB"><feFlood flood-opacity="0" result="BackgroundImageFix"/><feColorMatrix in="SourceAlpha" values="0 0 0 0 0 0 0 0 0 0 0 0 0 0 0 0 0 0 127 0" result="hardAlpha"/><feOffset dy="3.161"/><feGaussianBlur stdDeviation="3.951"/><feColorMatrix values="0 0 0 0 0 0 0 0 0 0 0 0 0 0 0 0 0 0 0.25 0"/><feBlend in2="BackgroundImageFix" result="effect1_dropShadow_302_20103"/><feBlend in="SourceGraphic" in2="effect1_dropShadow_302_20103" result="shape"/></filter></defs></svg>
